X: 2042
T: Ashplant, The
R: reel
M: 4/4
K: Edorian
|:BE~E2 BAGA|BE~E2 ~G2 GA|BE~E2 BABd|gedB A2GA:|
B2eB gBeB|~B2ed BAGA|B2eB ~g3 g|gedB A2GA|
B2eB gBeB|~B2ed BAGA|(3Bcd ef ~g3g|gedB A2GA||

